!!!COM:	Busnoys, Antoine
!!!CDT:	~1430///-1492/11/06
!!!OTL:	Advegne que venir pourra
!!!AGN:	Song; Chanson
!!!SCT:	Bus3002
!!!SCA:	Bus3002
!!!voices:	3
**kern	**text	**kern	**text	**kern	**text
*staff3	*staff3	*staff2	*staff2	*staff1	*staff1
*Ivox	*	*Ivox	*	*Ivox	*
*I"Contra	*	*I"Tenor	*	*I"Discantus	*
*I'C	*	*I'T	*	*I'D	*
*clefF4	*	*clefGv2	*	*clefG2	*
*k[b-e-]	*	*k[b-]	*	*k[b-]	*
*M2/1	*	*M2/1	*	*M2/1	*
*met(C|)	*	*met(C|)	*	*met(C|)	*
=1-	=1-	=1-	=1-	=1-	=1-
!	!	!	!	!LO:TX:Z=28:t=Rondeau	!
!	!	!	!	!LO:TX:Z=8:t=Only one stanza survives.	!
0GG	Ad-	0G	Ad-	1.g	Ad-
.	.	.	.	4f	.
.	.	.	.	4e	.
=2	=2	=2	=2	=2	=2
1G	-ve-	1B-	-ve-	2d	.
.	.	.	.	2c	.
1F	.	1A	.	[1f	-ve-
=3	=3	=3	=3	=3	=3
0C	.	0G	.	2f]	.
.	.	.	.	2e	.
.	.	.	.	2e	.
.	.	.	.	2d	.
=4	=4	=4	=4	=4	=4
1D	-gne	1F	-gne	1f	-gne
[1BB-	qu'ad-	[1B-	qu'ad-	1r	.
=5	=5	=5	=5	=5	=5
1BB-]	.	1B-]	.	1g	qu'ad-
1F	.	1c	-ve-	1a	-ve-
=6	=6	=6	=6	=6	=6
2r	.	1d	-nir	1b-	-nir
2G	-ve-	.	.	.	.
1C	.	2c	.	1cc	.
.	.	[2e-i	.	.	.
=7	=7	=7	=7	=7	=7
1G	-nir	2e-]	.	2b-	.
.	.	2d	.	1b-	pour-
2r	.	1c	.	.	.
2F	pour-	.	.	2a	.
=8	=8	=8	=8	=8	=8
1.G	.	1B-	pour-	1.b-	.
.	.	[1d	.	.	.
4F	.	.	.	4a	.
4E-	.	.	.	4g	.
=9	=9	=9	=9	=9	=9
2D	.	1d]	.	2f	.
2E-	.	.	.	2g	.
[1F	.	[1c	.	[1a	.
=10	=10	=10	=10	=10	=10
2F]	.	2c]	.	2a]	.
2G	.	2B-	.	4g	.
.	.	.	.	4f	.
1A	.	1c	.	1e	.
=11	=11	=11	=11	=11	=11
1F	.	1d	.	1d	.
1G	.	1B-	.	[1g	.
=12	=12	=12	=12	=12	=12
0D	.	0A	.	1g]	.
.	.	.	.	1f#i	.
=13	=13	=13	=13	=13	=13
1GG	-ra,	[0G	-ra,	0g	-ra,
[1C	.	.	.	.	.
=14	=14	=14	=14	=14	=14
2C]	.	0G]	.	1r	.
4BB-	.	.	.	.	.
4AA	.	.	.	.	.
1GG	Et	.	.	1g	Et
=15	=15	=15	=15	=15	=15
1G	mes-	1r	.	1.g	mes-
1r	.	1G	Et	.	.
.	.	.	.	2f	.
=16	=16	=16	=16	=16	=16
0C	-che-	1G	mes-	1e	.
.	.	1G	-che-	1e	-che-
=17	=17	=17	=17	=17	=17
0GG	-ne	0B-	-ne	0d	-ne
=18	=18	=18	=18	=18	=18
1.G	a	1.B-	a	1d	a
.	.	.	.	1g	.
2A	.	2c	.	.	.
=19	=19	=19	=19	=19	=19
0B-	qu'il	0d	qu'il	1f	qu'il
.	.	.	.	1b-	.
=20	=20	=20	=20	=20	=20
1F	deb-	1c	deb-	2a	deb-
.	.	.	.	2g	.
1G	.	1B-	.	[1g	.
=21	=21	=21	=21	=21	=21
0D	.	0A	.	2g]	.
.	.	.	.	2f#i	.
.	.	.	.	2f#i	.
.	.	.	.	2e	.
=22	=22	=22	=22	=22	=22
0GG	-vra,	1G	-vra,	1.g	-vra,
.	.	[1B-	.	.	.
.	.	.	.	2f	.
=23	=23	=23	=23	=23	=23
1C	.	1B-]	.	2e	.
.	.	.	.	2d	.
1FF	.	1A	.	[1f	.
=24	=24	=24	=24	=24	=24
0C	.	0G	.	1f]	.
.	.	.	.	1e	.
=25	=25	=25	=25	=25	=25
0FF	.	[0F	.	0f	.
=26	=26	=26	=26	=26	=26
1F	Je	0F]	.	1r	.
[1D	ne ac-	.	.	1a	Je
=27	=27	=27	=27	=27	=27
2D]	.	1r	.	0a	ne ac-
2C	.	.	.	.	.
2BB-	-comp-	1F	Je	.	.
2AA	.	.	.	.	.
=28	=28	=28	=28	=28	=28
0GG	-te	1.G	ne ac-	1.b-	-comp-
.	.	4F	-comp-	4a	.
.	.	4E	.	4g	.
=29	=29	=29	=29	=29	=29
1r	.	0D	-te	0f	-te
1D	pas	.	.	.	.
=30	=30	=30	=30	=30	=30
1GG	.	1G	pas	1b-	pas
1D	.	1F	.	1a	.
=31	=31	=31	=31	=31	=31
1.G	u-	1B-	u-	1g	u-
.	.	1c	-ne	2f	-ne
4F	.	.	.	2e	.
4Eni	.	.	.	.	.
=32	=32	=32	=32	=32	=32
0DN	-ne	1.dN	mail-	1fN	mail-
.	.	.	.	[1b-	.
.	.	4c	.	.	.
.	.	4B-	.	.	.
=33	=33	=33	=33	=33	=33
1r	.	1A	.	2b-]	.
.	.	.	.	2a	.
1F	mail-	1c	.	[1a	.
=34	=34	=34	=34	=34	=34
1.G	.	0B-	.	2a]	.
.	.	.	.	2g	.
.	.	.	.	2g	.
2E-	.	.	.	2f	.
=35	=35	=35	=35	=35	=35
1.F	.	0A	-le;	1.a	.
2D	.	.	.	2f	.
=36	=36	=36	=36	=36	=36
0D	-le;	1r	.	0f	-le;
.	.	1d	Car	.	.
=37	=37	=37	=37	=37	=37
1r	.	0d	quel	1r	.
1BB-	Car	.	.	1d	Car
=38	=38	=38	=38	=38	=38
1AA	quel	1c	.	2e	quel
.	.	.	.	2f	.
1GG	.	1B-	.	[1g	.
=39	=39	=39	=39	=39	=39
0D	que	0A	que	2g]	.
.	.	.	.	2f	.
.	.	.	.	1f	que
=40	=40	=40	=40	=40	=40
1E-	part	1G	part	1b-	part
[1F	que	[1c	que	2a	que
.	.	.	.	[2a	For-
=41	=41	=41	=41	=41	=41
2F]	.	2c]	.	2a]	.
2G	.	2B-	.	4g	.
.	.	.	.	4f	.
1A	For-	1c	For-	1e	.
=42	=42	=42	=42	=42	=42
1.B-	-tu-	1.d	-tu-	2d	-tu-
.	.	.	.	1f	.
4A	.	2e	.	2g	.
4G	.	.	.	.	.
=43	=43	=43	=43	=43	=43
2.F	.	2.f	.	2.a	.
4C	.	4e	.	4g	.
2D	.	2d	.	2f	.
2A	.	2c	.	2e	.
=44	=44	=44	=44	=44	=44
2F	.	2d	.	2d	.
2G	.	2B-	.	1g	.
1D	.	1A	.	.	.
.	.	.	.	2f#i	.
=45	=45	=45	=45	=45	=45
0GG	-ne ail-	1G	-ne ail-	1.g	-ne ail-
.	.	[1B-	.	.	.
.	.	.	.	4f	.
.	.	.	.	4e	.
=46	=46	=46	=46	=46	=46
1G	.	1B-]	.	2d	.
.	.	.	.	2c	.
1F	.	1A	.	1f	.
=47	=47	=47	=47	=47	=47
1C	.	1G	.	2e	.
.	.	.	.	2d	.
1D	.	1F	.	[1d	.
=48	=48	=48	=48	=48	=48
0AA	-le,	0E	.	1d]	.
.	.	.	.	1c#i	.
=49	=49	=49	=49	=49	=49
1r	.	[0D	-le,	0d	-le,
1D	Mon	.	.	.	.
=50	=50	=50	=50	=50	=50
1F	es-	0D]	.	1r	.
1F	-tat	.	.	1d	Mon
=51	=51	=51	=51	=51	=51
1.A	ne	1r	.	1f	es-
.	.	1D	Mon	1f	-tat
2G	.	.	.	.	.
=52	=52	=52	=52	=52	=52
2.F	.	1F	es-	1a	ne
4E-	.	.	.	.	.
2D	.	1F	-tat	1a	se
4C	.	.	.	.	.
4BB-	.	.	.	.	.
=53	=53	=53	=53	=53	=53
2AA	.	1A	ne	1.cc	chan-
1FF	.	.	.	.	.
.	.	1A	se	.	.
2FF	se	.	.	2b-	.
=54	=54	=54	=54	=54	=54
1FF	chan-	1.c	chan-	1.a	.
2C	.	.	.	.	.
2GG	-ge-	2B-	.	2g	-ge-
=55	=55	=55	=55	=55	=55
1D	-ra,	1A	.	1f	-ra,
2r	.	1G	.	1b-	ne
2GG	ne	.	.	.	.
=56	=56	=56	=56	=56	=56
1D	se	1F	.	2a	se
.	.	.	.	2g	.
2r	.	1G	.	[1g	chan-
2GG	chan-	.	.	.	.
=57	=57	=57	=57	=57	=57
0D	-ge-	0A	-ge-	1g]	.
.	.	.	.	1f	-ge-
=58	=58	=58	=58	=58	=58
2GG	-ra,	0G	-ra,	1.b-	-ra,
1G	.	.	.	.	.
4F	.	.	.	4a	.
4E-	.	.	.	4g	.
=59	=59	=59	=59	=59	=59
1D	.	1d	ne	1f	.
1r	.	1e	.	2g	.
.	.	.	.	2f	.
=60	=60	=60	=60	=60	=60
0BB-	ne	0f	.	1d	.
.	.	.	.	[1f	ne
=61	=61	=61	=61	=61	=61
0B-	se	0d	se	1f]	.
.	.	.	.	1b-	se
=62	=62	=62	=62	=62	=62
1F	chan-	1c	chan-	2a	chan-
.	.	.	.	2g	.
1G	.	1B-	.	[1g	.
=63	=63	=63	=63	=63	=63
0D	-ge-	0A	-ge-	1g]	.
.	.	.	.	1f#i	-ge-
=64	=64	=64	=64	=64	=64
0GGl	-ra.	0Gl	-ra.	0gl	-ra.
==	==	==	==	==	==
*-	*-	*-	*-	*-	*-
!!!RDF**kern: l=long note in original notation
!!!RDF**kern: i=editorial accidental
!!!RDF**kern: N=signum congruentiae
!!!ENC:	Chris Gage 04-02-2015
!!!END:	2015/10/29/
!!!EED:	Jesse Rodin
!!!EEV:	2015/10/29/
!!!ONB:	Translated from MusicXML and edited on 2015/10/29/ by Craig Sapp
!!muse2ps: C^@{COM}^i2I150v90,90,120Q16z18l2670
